X: 5
T: The Silver Spear
R: reel
M: 4/4
L: 1/8
K: Dmaj
|:"D"FA {BcB}A2 {A}BAFA|{A}BAFA ecdA|FA {BcB}A2 {A}BAFA|"G"{c}dfed BcdA|
"D"FA {BcB}A2 {A}BAFA|{A}BAFA d2 ef|"G"{f}g2 fe f2 fe|dfed {A}B2 A[Gd]:||
|:"D"fa (3agf afff|"G"{f}gefd edcd|"D"fa (3agf a2 fa|"G"gfed (3BdB AG|
"D"fa a{bagf}g a2 fa|"G"gfed Bdef|{f}g2 fe f2 fe|dfed {A}B2 A[Gd]:||


Tune 182	Setting 22284

